X: 14558
T: Gan Ainm
R: jig
M: 6/8
K: Gmajor
|:A|~B3 Bcd|cde fga|~g3 gdB|gdB ABc|
~B3 Bcd|cde fga|~g3 gdB|1 AGF G2:|2 AGF G||
|:Bd|gBB fBg|agf gdB|~g3 gdB|ABc Bcd|
gBB fBg|agf gdB|~g3 gdB|1 AGF G:|2 AGF G2||

